web-magafilio/image/footer/icon-phone.svg

<svg width="15" height="15" viewBox="0 0 15 15" fill="none" xmlns="http://www.w3.org/2000/svg">
<path d="M13.0865 1.30869L10.5162 0.734474C9.91465 0.597755 9.31309 0.898537 9.09434 1.44541L7.89121 4.23447C7.67246 4.72666 7.80918 5.32822 8.24668 5.68369L9.34043 6.58604C8.57481 8.00791 7.37168 9.18369 5.94981 9.97666L5.04746 8.88291C4.69199 8.44541 4.09043 8.30869 3.59824 8.52744L0.809181 9.70322C0.262306 9.94932 -0.0384752 10.5509 0.0982435 11.1524L0.672462 13.7228C0.809181 14.297 1.32871 14.6798 1.90293 14.6798C8.60215 14.6798 14.0709 9.26572 14.0709 2.53916C14.0709 1.96494 13.6607 1.44541 13.0865 1.30869ZM1.95762 13.3673L1.3834 10.9063L4.06309 9.75791L5.59434 11.6173C8.30137 10.3321 9.6959 8.9376 10.9811 6.23057L9.12168 4.69932L10.2701 2.01963L12.7584 2.59385C12.7311 8.52744 7.89121 13.3399 1.95762 13.3673Z" fill="black"/>
</svg>

<svg width="15" height="15" fill="none" xmlns="http://www.w3.org/2000/svg"><path d="M13.086 1.309l-2.57-.575C9.915.598 9.313.9 9.094 1.445l-1.203 2.79a1.233 1.233 0 00.356 1.449l1.093.902c-.765 1.422-1.968 2.598-3.39 3.39l-.903-1.093a1.233 1.233 0 00-1.449-.356L.81 9.703a1.272 1.272 0 00-.71 1.45l.573 2.57c.137.574.657.957 1.23.957 6.7 0 12.169-5.414 12.169-12.14 0-.575-.41-1.095-.985-1.231zM1.958 13.367l-.575-2.46 2.68-1.15 1.531 1.86c2.707-1.285 4.102-2.68 5.387-5.386l-1.86-1.532 1.15-2.68 2.487.575c-.027 5.933-4.867 10.746-10.8 10.773z" fill="#000"/></svg>
